X:1
T:There Is Shelter at the Cross
T:Charles Hutchinson Gabriel
T:There Is Shelter at the Cross
T:Public Domain
T:Public Domain
T:Public Domain
C:Charles Hutchinson Gabriel
Z:Public Domain
%%score ( 1 2 ) ( 3 4 )
L:1/8
M:4/4
K:G
V:1 treble 
V:2 treble 
V:3 bass 
V:4 bass 
V:1
 [DG][DA] | [GB][GB][GB][GB] [Gd]2 [DG][GB] | [EA][EA][EA][EA] [Ec]2 [EA][EG] | %3
w: 1.~Are you|worn with griefs and fears, Have you|wast- ed ma- ny years? There is|
w: 2.~Do you|long for love and peace, From the|tempt- er seek re- lease? There is|
w: 3.~Tho’ by|deeds of sin de- filed, You are|still the Sav- ior’s child, There is|
 [DF]<[DF] [CF]>[CE] [CD]2 [Fe]2 | (G2 A2 B2) G[GA] | [GB][GB][GB][GB] [Gd]2 [DG][GB] | %6
w: shel- ter at the cross for|you. * * Have you|far a- stray, In the dark- ness|
w: shel- ter at the cross for|you. * * Do you|snares of sin, Do you bear its|
w: shel- ter at the cross for|you. * * Tho’ by|fear op- pressed, In its sha- dow|
 [DA][DA][GB][GB] [Gc]2 [Ge][Ge] | [Gd]<[Gd] [Fd]>[Fc] [GB]2 [DA]2 | [DG]6 ||"^Refrain" [GB][Gc] | %10
w: lost your way? There is shel- ter|at the cross for you. There|is|shel- ter|
w: marks with- in? There is shel- ter|at the cross for you. *|||
w: there is rest— There is shel- ter|at the cross for you. *|||
 [Gd]<[G-d] d>d d2 (GG) | (FEAG F2) [FA][GB] | [Ac]<[A-c] c>c c2 (FF) x2 | (G2 G2 G2) [GB][Gc] | %14
w: at the cross for you, * *|shel- * * * * ter at|cross for you; By a world *|sin * * de- nied,|
w: ||||
w: ||||
 [Gd][Gd][Gd][GB] [DG]2 [DA][=FB] | [Ec][Ec][Ec][EA] [CE]2 [Ge][Ge] | %16
w: sus suf- fered there and died; There|is shel- ter at the cross for|
w: ||
w: ||
 [Gd]<[Gd] [Fd]>[Fc] [GB]2 [DA]2 | [DG]6 |] %18
w: you. * * * * *||
w: ||
w: ||
V:2
 x2 | x8 | x8 | x8 | d6 G x | x8 | x8 | x8 | x6 || x2 | x2 G4 e2 | c6 x2 | x2 A4 d4 | B6 x2 | x8 | %15
w: ||||wan- dered||||||There is|the|* of|Je-||
w: ||||fear the|||||||||||
w: ||||doubt and|||||||||||
 x8 | x8 | x6 |] %18
w: |||
w: |||
w: |||
V:3
 [G,B,][G,C] | [G,D][G,D][G,D][G,D] [G,B,]2 [G,B,][G,D] | %2
w: ~ ~|~ ~ ~ ~ ~ ~ ~|
 [C,C][C,C][C,C][C,C] [C,A,]2 [^C,A,][C,A,] | [D,A,]<[D,A,] [D,A,]>[D,G,] [D,F,]2 [B,,C]2 | %4
w: ~ ~ ~ ~ ~ ~ ~|~ ~ ~ ~ ~ ~|
 [G,B,]2 [G,C]2 [G,D]2 [G,B,][G,C] | [G,D][G,D][G,D][G,D] [G,B,]2 [G,B,][G,D] | %6
w: ~ ~ ~ ~ ~|~ ~ ~ ~ ~ ~ ~|
 [F,D][F,D][=F,D][F,D] [E,C]2 [C,C][C,C] | [D,B,]<[D,B,] [D,A,]>[D,E] [D,D]2 [D,C]2 | [G,,B,]6 || %9
w: ~ ~ ~ ~ ~ ~ ~|~ ~ ~ ~ ~ ~|~|
 [G,D][G,A,] | [G,B,]<[G,B,]- [G,B,]4 [G,B,][G,B,] | (A,G,)(F,E,) [D,D]2 [D,D][D,D] | %12
w: There is|shel- ter * at the|cross * for * you, There is|
 [D,D]<[D,D]- [D,D]4 [D,A,][D,D] x2 | [G,D]2 [G,D]2 [G,D]2 [G,D][G,A,] | %14
w: at the * cross for|you: * * * *|
 [G,B,][G,B,][G,B,][G,D] [G,B,]2 [G,C][G,D] | [C,C][C,G,][C,G,][C,G,] [C,G,]2 [C,C][C,C] | %16
w: ||
 [D,B,]<[D,B,] [D,A,]>[D,E] [D,D]2 [D,C]2 | [G,,B,]6 |] %18
w: ||
V:4
 x2 | x8 | x8 | x8 | x8 | x8 | x8 | x8 | x6 || x2 | x8 | D2 D2 x4 | x10 | x8 | x8 | x8 | x8 | x6 |] %18
w: |||||||||||shel- ter|||||||

